svg/text_box_multiple.svg

<?xml version="1.0" encoding="UTF-8"?><!DOCTYPE svg PUBLIC "-//W3C//DTD SVG 1.1//EN" "http://www.w3.org/Graphics/SVG/1.1/DTD/svg11.dtd"><svg xmlns="http://www.w3.org/2000/svg" xmlns:xlink="http://www.w3.org/1999/xlink" version="1.1" id="mdi-text-box-multiple" width="24" height="24" viewBox="0 0 24 24"><path d="M16,15H9V13H16M19,11H9V9H19M19,7H9V5H19M21,1H7C5.89,1 5,1.89 5,3V17C5,18.11 5.9,19 7,19H21C22.11,19 23,18.11 23,17V3C23,1.89 22.1,1 21,1M3,5V21H19V23H3A2,2 0 0,1 1,21V5H3Z" /></svg>

<svg xmlns="http://www.w3.org/2000/svg" viewBox="0 0 24 24"><path d="M16 15H9v-2h7m3-2H9V9h10m0-2H9V5h10m2-4H7c-1.11 0-2 .89-2 2v14a2 2 0 0 0 2 2h14c1.11 0 2-.89 2-2V3a2 2 0 0 0-2-2M3 5v16h16v2H3a2 2 0 0 1-2-2V5z"/></svg>
